X: 11874
T: Emily's Welcome To Portland
R: reel
M: 4/4
K: Gmajor
DEF|:GAGD B,DGA|BGDB, CEAB|1 cAFA d2ce|dcBA GFAF:|
[2 cAdc edcA|GFAF G:|Bdf|:gddg adda|gdga bgdc|
gccg acga|bagb a2 ba|gBBg aBBa|1 gfga bged|c2 ab c'bag|
fdaf gdef:|2 gfga bgec|A2ce agfe|d2cd BcAF||

